X:1
T:O Holy Night
T:O Holy Night
T:Released to the Public Domain
T:Released to the Public Domain
Z:Released to the Public Domain
%%score 1 2 3 4
L:1/8
Q:1/4=65
M:4/4
K:Bb
V:1 treble nm="Soprano"
V:2 treble nm="Alto"
V:3 bass nm="Tenor"
V:4 bass nm="Bass"
V:1
 D2 D>D | (F2 F>)F G>G E>G | B4 F>F D>C | B,2 D>E F2 E>C |[M:5/4] B,6 D2 D>D | %5
w: O ho- ly|night, * the stars are bright- ly|shi- ning, It is the|night of the dear Sa- vior’s|birth; Long lay the|
[M:4/4] (F2 F>)F G>G E>G | B4 F>F =E>D | A2 F>G A2 B>A | D6 z F | F2 G2 C2 F2 | G>F B>D G2 F>F | %11
w: world * in sin and er- ror|pin- ing, Till He ap-|peared and the soul felt its|worth. A|thrill of hope the|wea- ry world re- joi- ces, For|
 F2 G2 C2 F2 | G>F B>D F4 | B6 A>G | A6 z A | (c4 c>)G G>G | B4 B3 B | (d4 c3) F | (B4 B2) (A>G) | %19
w: yon- der breaks a|new and glo- rious morn;|Fall on your|knees, Oh|hear * the an- gel|voi- ces! O|night * di-|vine, * O *|
 (F4 F>)F G>F | F6 B2 | c6 z F | d6 d2 | B4 A2 B>c | B6 |] %25
w: night * when Christ was|born! O|night, O|ho- ly|night, O night di-|vine.|
V:2
 B,2 B,>B, | (B,2 B,>)B, B,>B, B,>C | D4 D>B, B,>C | B,2 B,>B, A,2 A,>A, |[M:5/4] B,6 B,2 B,>B, | %5
[M:4/4] (B,2 B,>)B, B,>B, B,>C | D4 D>B, _A,>D | D2 D>D ^C2 C>C | D6 z A, | A,2 A,2 C2 C2 | %10
 D>D D>B, D2 D>B, | A,2 A,2 C2 C2 | D>D D>B, B,4 | D6 D>D | F6 z D | (E4 E>)E E>E | D4 D3 D | %17
 (F4 F3) F | (F4 G2) (F>E) | (D4 E>)E E>E | D6 F2 | F6 z F | (F4 G2) G2 | F4 E2 E>E | D6 |] %25
V:3
 F,2 F,>F, | (_A,2 A,>)A, G,>G, G,>G, | F,4 B,>D, F,>E, | D,2 F,>F, E,2 G,>E, | %4
[M:5/4] D,6 F,2 F,>F, |[M:4/4] (B,2 _A,>)A, G,>G, G,>G, | F,4 B,>D, D,>F, | F,2 A,>A, G,2 G,>G, | %8
 F,6 z F, | E,2 E,2 F,2 A,2 | B,>B, F,>F, F,2 B,>F, | E,2 E,2 F,2 A,2 | B,>F, F,>F, D,4 | %13
 B,6 C>B, | A,6 z F, | (G,4 G,>)C C>C | B,4 B,3 B, | (B,4 A,3) A, | (B,4 B,2 B,>)B, | %19
 (B,4 A,>)A, A,>A, | B,6 B,2 | A,6 z A, | B,6 (B, C) | D4 C2 B,>A, | B,6 |] %25
V:4
 B,,2 B,,>B,, | (D,2 D,>)D, (E,>E,) E,>E, | B,,4 B,,>B,, B,,>B,, | F,,2 F,,>F,, C,2 F,,>F,, | %4
[M:5/4] B,,6 B,,2 B,,>B,, |[M:4/4] (D,2 D,>)D, (E,>E,) E,>E, | B,,4 B,,>B,, B,,>B,, | %7
 A,,2 A,,>A,, =E,2 E,>A,, | D,6 z D, | C,2 F,,2 A,,2 F,,2 | B,,>B,, B,,>F,, B,,2 B,,>D, | %11
 C,2 F,,2 A,,2 F,,2 | B,,>B,, F,,>F,, B,,4 | G,6 G,>G, | D,6 z D, | (C,4 C,>)C, C,>C, | %16
 G,4 G,3 G, | (F,4 E,3) E, | (D,4 E,2 E,>)E, | (F,4 F,,>)F,, F,,>F,, | B,,6 D,2 | F,6 z E, | %22
 (D,4 E,2) E,2 | F,4 F,2 F,>F,, | B,,6 |] %25

